Papirus/16x16/apps/xcom-enemy-unknown.svg

<svg width="16" height="16" version="1.1" xmlns="http://www.w3.org/2000/svg">
 <path d="m4.0001075-1.4e-4c-0.4460806 2.0977049e-4 -0.8380932 0.29580224-0.9609719 0.72460938l-2.0000717 7c-0.0926337 0.322797-0.017068 0.6705359 0.2011791 0.9257812l6.0002151 7.0000004c0.3991894 0.466332 1.1203962 0.466332 1.5195856 0l6.0002153-7.0000004c0.218247-0.2552452 0.293813-0.6029842 0.201179-0.9257812l-2.000071-7c-0.122879-0.42880732-0.514892-0.72439983-0.960973-0.72460938z" style="fill:#3134a1"/>
 <path d="m8 6a8 5 0 0 0-6.8828125 2.4628906c0.0344528 0.0657736 0.0737262 0.1298183 0.1230469 0.1875l6 7.0000004c0.1995947 0.233166 0.4796665 0.349609 0.7597656 0.349609s0.5601709-0.116443 0.7597656-0.349609l6.0000004-7.0000004c0.04932-0.0576817 0.088594-0.1217264 0.123046-0.1875a8 5 0 0 0-6.882812-2.4628906z" style="fill:#386ab5"/>
 <path d="M 4 0 C 3.5539194 0.00020977049 3.1619412 0.29580223 3.0390625 0.72460938 L 2.5859375 2.3085938 L 6.5 8 L 3.9101562 11.765625 L 5.5761719 13.708984 L 8 10.181641 L 10.423828 13.708984 L 12.089844 11.765625 L 9.5 8 L 13.414062 2.3085938 L 12.960938 0.72460938 C 12.838059 0.29580205 12.446081 0.00020954753 12 0 L 8 5.8183594 L 4 0 z " style="fill:#469fe3"/>
</svg>

<svg xmlns="http://www.w3.org/2000/svg" width="16" height="16" version="1.1">
 <path style="fill:#3134a1" d="M 4.0001,0 C 3.554,2.0977e-4 3.162,0.2958 3.0391,0.72461 L 1.0391,7.7246 C 0.94647,8.0474 1.022,8.3951 1.2402,8.6504 L 7.2405,15.65 C 7.6396,16.117 8.3609,16.117 8.76,15.65 L 14.76,8.6504 C 14.979,8.3951 15.054,8.0474 14.961,7.7246 L 12.961,0.72461 C 12.838,0.2958 12.446,2.0955e-4 12,0 Z"/>
 <path style="fill:#386ab5" d="M 8,6.0001 A 8,5 0 0 0 1.1172,8.463 C 1.1516,8.5288 1.1909,8.5928 1.2402,8.6505 L 7.2402,15.65 C 7.4398,15.884 7.7199,16 8,16 8.2801,16 8.5602,15.884 8.7598,15.65 L 14.76,8.6505 C 14.809,8.5928 14.848,8.5288 14.883,8.463 A 8,5 0 0 0 8,6.0001 Z"/>
 <path style="fill:#469fe3" d="M 4,1.4e-4 C 3.5539,3.4977e-4 3.1619,0.29594 3.0391,0.72475 L 2.5859,2.3087 6.5,8.0001 3.9102,11.766 5.5762,13.709 8,10.182 10.424,13.709 12.09,11.766 9.5,8.0001 13.414,2.3087 12.961,0.72475 C 12.838,0.29594 12.446,3.4955e-4 12,1.4e-4 L 8,5.8185 Z"/>
</svg>
